X: 176
Q: "With spirit. (" 1/4=104 ")"
U: p=!crescendo(!
U: P=!crescendo)!
U: Q=!diminuendo(!
U: q=!diminuendo)!
M: 3/4
L: 1/8
K: Bb
(F> D) | B,2 D2 pF2 | PB2- B2 ("^>"d> c) | QB2 qD2 =E2 | F4 F- F |
d3 c B2 | A4 G> A | B2 B2 F2 | D2 B,2 F> D |
Qe qd | c2 pd2 Pe2 | e4 e- e | d3 Qc qB2 | A2- A2 (G> A) |
Q(B2 qHA2) F F "broaden"| (pB3 Pc) d e !ff!| f4 B c | d3 e c2 | B4 |]



